X:1
T:I Believe
C:Al Stillman, Ervin Drake, Irvin Graham, Jimmy Shirl
Z:All Rights Reserved
L:1/4
M:2/2
K:C
V:1 treble 
V:1
"C" C C C C | C C C C |"F" D3/2 E/ D2- |"G7" D D E D |"C" E4- |"Fmaj7" E4 |"C" E E E E | %7
w: I Be- lieve for|ev- 'ry drop of|rain that falls|_ a flow- er|grows.|_|I Be- lieve that|
w: I Be- lieve a-|bove the storm the|small- est pray'r|_ will still be|heard.|_|I Be- lieve that|
"Am7" E E E E |"Dm7" F3/2 G/ F2- |"G7" F F G F |"Cmaj7" G4- |"C6" G4 |"C" G G G G |"Am7" G G G G | %14
w: some- where in the|dark- est night,|_ a can- dle|glows.|_|I Be- lieve for|ev- 'ry\- one who|
w: some- one in the|great some- where|_ hears ev- 'ry|word.|_|Ev- 'ry time I|hear a new- born|
"F" A3/2 B/ A2- |"B7" A A B A |"E" B4- |"E7" B B c B |"Am" c4- |1 c4 |"Dm7" c3/2 F/ F2- | F4 | %22
w: goes a- stray|_ some- one will|come|_ to show the|way.|_|I Be- lieve|_|
w: ba- by cry,|_ or touch a|leaf,|_ or see the|sky,|_|||
"G7" A3 G | G4 :|2 c c d c |"Dm7" d4 |"G7" d3 c |"C" c4- | c3 z |] %29
w: I Be-|lieve.|* Then I know|why|I Be-|lieve!|_|
w: |||||||

